X: 27855
T: Mother's Delight
R: reel
M: 4/4
K: Gmixolydian
|:"G"Bdgd BG G2|"F"Acfc AF F2|"G"Bdgd BGGB|"F"AcFG AG "G"G2|
"G"Bdgd BG G2|"F"Acfc AF F2|"Bb"_B2 BA Bdfd|"F"cAFG AG "G"G2:|
|:"Bb"_B2 BA BAGA|_BAB/c/d "F"cBAB|"G"Ggg^f g2 ga|bga^f "D"defd|
"G"gag^f "D"d2 de|"F"=fdc_B AF F2|"G"Gg g2 dgbg|"D"^fdcA "G"=BG G2:|

